packages/vapor/resources/icons/svg/exclamation-mark-in-full-circle.svg

<svg viewBox="0 0 18 18" xmlns="http://www.w3.org/2000/svg"><path d="m9 0c-5 0-9 4-9 9s4 9 9 9 9-4 9-9-4-9-9-9zm0 14.6c-.6 0-1.1-.5-1.1-1.1s.5-1.1 1.1-1.1 1.1.5 1.1 1.1-.5 1.1-1.1 1.1zm1.1-6.5c0 .3-.1 1.5-.2 2.3 0 .5-.4.9-.9.9s-.8-.3-.9-.8c-.1-.8-.2-2-.2-2.3v-3.9c0-.5.4-.9.9-.9h.4c.5 0 .9.4.9.9z"/></svg>

<svg xmlns="http://www.w3.org/2000/svg" viewBox="0 0 18 18">
<path d="M9,0C4,0,0,4,0,9s4,9,9,9s9-4,9-9S14,0,9,0z M9,14.6c-0.6,0-1.1-0.5-1.1-1.1s0.5-1.1,1.1-1.1s1.1,0.5,1.1,1.1
	S9.6,14.6,9,14.6z M10.1,8.1c0,0.3-0.1,1.5-0.2,2.3c0,0.5-0.4,0.9-0.9,0.9S8.2,11,8.1,10.5C8,9.7,7.9,8.5,7.9,8.2V4.3
	c0-0.5,0.4-0.9,0.9-0.9h0.4c0.5,0,0.9,0.4,0.9,0.9V8.1z"/>
</svg>
